X:646
T:
S:Från Gotlands fornsal.
R:kadrilj
O:Gotland
M:2/4
L:1/16
K:C
GF|E2EE G2EG|c2Gc e4|d2g2 ^fgag|e4 c2 GF|
E2EE G2EG|c2Gc e4|d2g2 gfed|c2e2c2:|
|:dc|B2Bd g2g2|e2ge c2c2|B2Bd g2g2|e2ge c2GF|
E2EE G2EG|c2Gc e4|d2ag gfed|c2e2c2:|
|:c2|e4 g4|c'6 b2|a2b2c'2a2|g4e2e2|
fdef gabc'|d'c'ba gfed|e2ef d2de|c2e2c2:|
|:ga|b2b2 c'bab|c'4 g2g2|^f2g2d2g2|e4 c2 z2|
e4g4|c'6 a2|g2e2f2d2|c4 z2:|

